X:1
T:Title
%%score { ( 1 3 ) | ( 2 4 ) }
L:1/8
Q:1/4=87
M:6/8
K:A
V:1 treble nm="Grand Piano"
V:3 treble 
V:2 bass 
V:4 bass 
V:1
 [CE][CA][Ec] [Ec][EB][EA] | FBB B3 | [DE][DE][DE] [DG]3 | Bcd [Ec]2 [CE] | %4
w: Frank~M.~Davis * * * * *||||
 [CE][CA][Ec] [Ec][EB][EA] | FBB B3 | EEE BBc | [CA]6 | [Ec][Ec][Ec] [Fd][Ec][Ec] | %9
w: |||||
 [^Dc][DB][DA] B3 | EEE G3 | FGF [CE]2 [CE] | [Ec][Ec][Ec] [Fd][Ec][Ec] | [^Dc][DB][DA] B3 | %14
w: |||||
 BeG [^DB][DA][DF] |[M:15/16] z3 d3/2- d3 |[M:3/4] [Ec][Ec] [Ec][Ec] [CE][CE] | %17
w: |||
 [CF][CF] [CF] [CE]3 | [DE][DE] [DE] [DG]3 | FG F [CE]3 | [Ec][Ec] [Ec][Ec] [CE][CE] | %21
w: ||||
 [CF][CF] [CF] [CE]3 | z D D B2 c | A6 |] %24
w: |||
V:2
 [A,,A,][A,,E,][A,,A,] [A,,A,][B,,G,][C,A,] | [D,B,D][D,F,D][D,F,D] [D,F,D]3 | %2
 [B,,G,][B,,G,][B,,G,] [B,,B,]3 | [E,G,E][E,A,E][E,B,E] [A,,A,]2 [A,,A,] | %4
 [A,,A,][A,,A,][A,,A,] [A,,A,][B,,G,][C,A,] | [D,B,D][D,F,D][D,F,D] [D,F,D]3 | %6
 [E,G,D][E,G,D][E,G,D] [E,G,D][E,G,D][E,A,E] | [A,,E,]6 | %8
 [A,,A,][A,,A,][A,,A,] [A,,A,][A,,A,][A,,A,] | [B,,F,][B,,F,][B,,B,] [E,G,E]3 | %10
 [E,G,D][E,G,D][E,G,D] [E,B,D]3 | [E,B,D][E,B,D][E,G,D] [A,,A,]2 [A,,A,] | %12
 [A,,A,][A,,A,][A,,A,] [A,,A,][A,,A,][A,,A,] | [B,,F,][B,,F,][B,,B,] [E,G,E]3 | %14
 [E,G,E][E,G,E][E,B,E] [B,,B,][B,,F,][B,,A,] |[M:15/16] [E,G,]3/2-[E,G,]3/2-[E,G,]3/2- [E,G,]3 | %16
[M:3/4] [A,,A,][A,,A,] [A,,A,][A,,A,] [A,,A,][A,,A,] | [A,,A,][A,,A,] [A,,A,] [A,,A,]3 | %18
 [B,,G,][B,,G,] [B,,G,] [B,,B,]3 | [E,B,D][E,B,D] [E,G,D] [A,,A,]3 | %20
 [A,,A,][A,,A,] [A,,A,][A,,A,] [A,,A,][A,,A,] | [A,,A,][A,,A,] [A,,A,] [A,,A,]3 | .[G,D]2 z .D3 | %23
 z2 F, .E,3 |] %24
V:3
 x6 | x6 | x6 | x6 | x6 | x6 | x6 | x6 | x6 | x6 | x6 | x6 | x6 | x6 | x6 | %15
[M:15/16] E3/2-E3/2- E3- E z/ |[M:3/4] x6 | x6 | x6 | x6 | x6 | x6 | E4 z2 | [A,C]2 D .C3 |] %24
V:4
 x6 | x6 | x6 | x6 | x6 | x6 | x6 | x6 | x6 | x6 | x6 | x6 | x6 | x6 | x6 |[M:15/16] x15/2 | %16
[M:3/4] x6 | x6 | x6 | x6 | x6 | x6 | E,-[E,-G,] [E,G,] [E,G,]2- [E,G,E] | A,,6 |] %24

